X:1
T:Robin Hood and the Bishop of Hereford
M:4/4
L:1/8
K:C
C-DE-F G2 c2|d-c BA G2 z2| CD EF G2 G2| c2 cc dd B2| A6 G2| c2 c2 d2 cB|\
 c2 c2 EE DD| E2 A2 G2 F2| E2- D2 z2 EF| G4 c4| GF ED C2||

